!!!COM: Anon.
!!!OTL: O\_tsue-Bushi
!!!OTC: Japanese Popular Music: A Collection of The Popular Music of Japan Rendered in to the Staff notation.
!!!CNT: Nippon, Japanese
!!!TXO: Nippon, Japan
!!!OCY: Nippon, Japan
!!!ODT: <1892///
!!!PSR: S. Miki & Co.
!!!PSP: Osaka, Nippon
!!!PDT: 1892///
!!!PPE: Y Nagai & K. Kobatake
!!!PED: Revised Second Edition
!!!PPG: page 64-65
!! Moderato
**kern	**silbe
*ICstr	*Lnippon
*ICvox	*
*Ikoto	*
*Ivox	*
*clefG2	*
*k[]	*
*M4/4	*
8cc	.
=1	=1
8b	.
8a	.
8f	.
8a	.
4b	.
4a	.
=2	=2
2b	.
4.b	.
8a	.
=3	=3
4b	.
4dd	.
4.ee	.
8dd	.
=4	=4
4.ee	.
8ff	.
2ee	.
=5	=5
4cc	.
8b	.
8cc	.
4..a	.
16g	.
=6	=6
4a	.
4b	.
4a	.
8a	.
8a	.
=7	=7
4a	.
4g	.
8a	.
8a	.
8r	.
8f	.
=8	=8
4e	.
4.e	.
8g	.
4a	.
=9	=9
8r	.
8b	.
4a	.
4a	.
8f	.
8a	.
=10	=10
4b	.
8a	.
8b	.
4e	.
4b	.
=11	=11
4r	.
4B 4b	.
4B 4b	.
8dd	.
8dd	.
=12	=12
8ee	.
8dd	.
8b	.
8dd	.
4e	.
4ee	.
=13	=13
4r	.
4e 4ee	.
4e 4ee	.
8gg	.
8ee	.
=14	=14
4a	.
4b	.
4cc	.
4r	.
=15	=15
4b	.
4cc	.
4a	.
8b	.
8a	.
=16	=16
4f	.
8a	.
8f	.
4e	.
4d	.
=17	=17
4e	.
4g	.
4.a	.
8a	.
=18	=18
8b	.
8r	.
8a	.
8r	.
8dd	.
8r	.
8ee	.
8dd	.
=19	=19
8b	.
8r	.
8dd	.
8ee	.
4a	.
8r	.
8b	.
=20	=20
4a	.
4f	.
4.e	.
8d	.
=21	=21
4e	.
4f	.
4a	.
8.b	.
16a	.
=22	=22
4f	.
4e	.
8aa	.
8aa	.
8ff	.
8ff	.
=23	=23
4ee	.
4dd	.
8b-	.
8r	.
8dd	.
8dd	.
=24	=24
8b-	.
8dd	.
8b-	.
8a	.
4d	.
4d	.
=25	=25
4e	.
4f	.
8a	.
8a	.
8a	.
8f	.
=26	=26
4e	.
4d	.
4r	.
4e	.
=27	=27
4r	.
4e 4ee	.
4.e 4.ee	.
8a	.
=28	=28
8g	.
8r	.
8a	.
8r	.
8d	.
8r	.
8b-	.
8r	.
=29	=29
4b-	.
4dd	.
8ee	.
8ee	.
8e	.
8ee	.
=30	=30
4ff	.
4ee	.
8aa	.
8aa	.
8r	.
8ff	.
=31	=31
4ee	.
4dd	.
4b-	.
4r	.
=32	=32
4r	.
4dd	.
8b	.
8a	.
8g	.
8a	.
=33	=33
8b	.
8r	.
8ee	.
8dd	.
8b	.
8r	.
8dd	.
8ee	.
=34	=34
4.a	.
8g	.
4a	.
4b	.
=35	=35
4a	.
8a	.
8a	.
4a	.
4g	.
=36	=36
8a	.
8a	.
8d	.
8a	.
8b	.
8r	.
8a	.
8r	.
=37	=37
8dd	.
8ff	.
8ee	.
8dd	.
8b	.
8r	.
8dd	.
8ee	.
=38	=38
4a	.
8dd	.
8a	.
4dd	.
4ee	.
=39	=39
4ff	.
8ff	.
8ff	.
8ee	.
8ee	.
8ff	.
8ee	.
=40	=40
8dd	.
8ff	.
8ee	.
8dd	.
8b-	.
8dd	.
8b-	.
8a	.
=41	=41
8g	.
8r	.
8g	.
8r	.
8a	.
8r	.
8g	.
8r	.
=42	=42
8a	.
8a	.
8b	.
8a	.
8dd	.
8r	.
8b	.
8dd	.
=43	=43
4a	.
8r	.
8f	.
4e	.
4d	.
=44	=44
4.e	.
8cc	.
8b	.
8a	.
8f	.
8a	.
=45	=45
4B 4b	.
4B 4a	.
4B 4b	.
==	==
*-	*-
!!!ENC: David Huron
!!!RDT: 2000/1/30
!!!EEV: Release 1.0
!!!ELF: 18/28
!!!YER: 2000/2/1
!!!YEM: Copyright David Huron, 2000
!!!YEN: United States of America
